X: 21072
T: Just Another Fling
R: strathspey
M: 4/4
K: Dminor
d>cB>A B>G D2|A<Fd>F F2 E2|d<cB>A (B>Gd>B|A<FE>F D2:|
f<dA>d f<d A2|B>fA>f e2 (3bag|f<dA>d f<d A2|B<fA>f d2 (3bag|
f<dA>d f<dA>f|B<fA>f e2 (3AB^c|d<fB>d A<d (3EFG|(3ABA (3GFE D2||

